X:1
T:Castle in the Sky (Theme)
T:天空之城
C:Joe Hisaishi
M:4/4
L:1/8
Q:1/4=90
K:C

| z2 z2 z2 A B | c3 B c2 e2 | B6 e2 | A3 G A2 c2 |
| G6 e2 | F3 E F2 c2 | E6 c c | B3 ^F F2 B2 |
| B6 A B | c3 B c2 e2 | B6 e2 | A3 G A2 c2 |
| G6 F2 | F3 c B B c2 | D3 E c c3 | c B A2 B2 ^G2 |
| A8 ||
